packages/icons/svg/Outline/layers.svg

<svg width="24" height="24" viewBox="0 0 24 24" fill="none" xmlns="http://www.w3.org/2000/svg">
<g id="Icon/Outline/layers">
<path id="Mask" fill-rule="evenodd" clip-rule="evenodd" d="M17.7603 15.54L12.0003 18.847L6.24033 15.54L7.93433 14.819L11.5023 16.867C11.6563 16.956 11.8283 17 12.0003 17C12.1723 17 12.3433 16.956 12.4983 16.867L16.0663 14.818L17.7603 15.54ZM11.5023 12.867C11.6563 12.956 11.8283 13 12.0003 13C12.1723 13 12.3433 12.956 12.4983 12.867L16.0663 10.818L17.7603 11.54L12.0003 14.847L6.24033 11.54L7.93433 10.818L11.5023 12.867ZM12.0003 5.08701L17.7603 7.54001L12.0003 10.847L6.24033 7.54001L12.0003 5.08701ZM20.9983 11.348C20.9753 10.969 20.7403 10.636 20.3913 10.487L18.2393 9.57101L20.4983 8.27401C20.8273 8.08601 21.0203 7.72701 20.9983 7.34801C20.9753 6.97001 20.7403 6.63601 20.3913 6.48701L12.3913 3.08001C12.1413 2.97301 11.8583 2.97301 11.6083 3.08001L3.60833 6.48701C3.25933 6.63601 3.02433 6.97001 3.00233 7.34801C2.97933 7.72701 3.17333 8.08601 3.50233 8.27401L5.76033 9.57101L3.60833 10.487C3.25933 10.636 3.02433 10.969 3.00233 11.348C2.97933 11.727 3.17333 12.086 3.50233 12.274L5.76033 13.571L3.60833 14.487C3.25933 14.636 3.02433 14.969 3.00233 15.348C2.97933 15.727 3.17333 16.086 3.50233 16.274L11.5023 20.867C11.6563 20.956 11.8283 21 12.0003 21C12.1723 21 12.3433 20.956 12.4983 20.867L20.4983 16.274C20.8273 16.086 21.0203 15.727 20.9983 15.348C20.9753 14.97 20.7403 14.636 20.3923 14.487L18.2403 13.57L20.4983 12.274C20.8273 12.086 21.0203 11.727 20.9983 11.348Z" fill="#000000"/>
</g>
</svg>

<svg fill="none" height="24" viewBox="0 0 24 24" width="24" xmlns="http://www.w3.org/2000/svg"><path clip-rule="evenodd" d="m17.7604 15.54-5.76 3.307-5.76004-3.307 1.694-.721 3.56804 2.048c.154.089.326.133.498.133s.343-.044.498-.133l3.568-2.049zm-6.258-2.6729c.154.089.326.133.498.133s.343-.044.498-.133l3.568-2.049 1.694.722-5.76 3.307-5.76004-3.307 1.694-.722zm.498-7.78006 5.76 2.453-5.76 3.30696-5.76004-3.30696zm8.9979 6.26096c-.023-.379-.258-.712-.607-.861l-2.152-.916 2.259-1.29699c.329-.188.522-.547.5-.926-.023-.378-.258-.712-.607-.861l-8-3.407c-.25-.107-.533-.107-.783 0l-7.99997 3.407c-.349.149-.584.483-.606.861-.023.379.171.738.5.926l2.258 1.29699-2.152.916c-.349.149-.584.482-.606.861-.023.379.171.738.5.926l2.258 1.297-2.152.916c-.349.149-.584.482-.606.861-.023.379.171.738.5.926l7.99997 4.593c.154.089.326.133.498.133s.343-.044.498-.133l8-4.593c.329-.188.522-.547.5-.926-.023-.378-.258-.712-.606-.861l-2.152-.917 2.258-1.296c.329-.188.522-.547.5-.926z" fill="#6b7280" fill-rule="evenodd"/></svg>
